X: 187
T: Ce n'est pas jeu
N: Derived from Rue3003-Ce_nest_pas_jeu.krn
C: Pierre de la Rue
%%abc-version 2.0
%%abcx-abcm2ps-target-version 5.9.1 (29 Sep 2008)
%%abc-creator hum2abc beta
%%abcx-conversion-date 2019/02/17 08:01:17
%%abc-edited-by Jesse Rodin
%%abc-edited-by Chris Gage 06-17-2013
%%abcx-initial-encoding-date 2013/08/06/
%%humdrum-veritas 1649481417
%%humdrum-veritas-data 4128137431
%%linebreak <none>
%%barnumbers 0
L: 1/4
M: 2/1
Q: 1/2=120
%%staves [1 2 3 4]
V: 1 clef=treble
V: 2 clef=treble-8
V: 3 clef=bass
V: 4 clef=bass
K: F
[V:1] D3EFGA2- | 
[V:2] d4d2d2 | 
[V:3] z8 | 
[V:4] z8 | 
[V:1] A2GFG2A2 | 
[V:2] c6BA | 
[V:3] z8 | 
[V:4] z8 | 
[V:1] B8 | 
[V:2] G3ABcd2- | 
[V:3] G,4G,2G,2 | 
[V:4] z8 | 
[V:1] A8 | 
[V:2] d2cBc2d2 | 
[V:3] F,6_E,D, | 
[V:4] z8 | 
[V:1] z8 | 
[V:2] _e8 | 
[V:3] C,3D,_E,F,G,2- | 
[V:4] C,4C,2C,2 | 
[V:1] z8 | 
[V:2] d8 | 
[V:3] G,2F,E,F,2G,2 | 
[V:4] B,,6A,,G,, | 
[V:1] c4c2c2 | 
[V:2] z8 | 
[V:3] A,8 | 
[V:4] F,,8 | 
[V:1] B6AG | 
[V:2] d4d2d2- | 
[V:3] G,6F,E, | 
[V:4] G,,3A,,B,,C,D,2- | 
[V:1] F4z2F2 | 
[V:2] d2_e4d2- | 
[V:3] D,4z2A,2 | 
[V:4] D,2C,B,,C,2D,2 | 
[V:1] G2A2B3A/G/ | 
[V:2] d2cBd3c | 
[V:3] G,2F,2G,2A,2 | 
[V:4] _E,8 | 
[V:1] F2G4^F2 | 
[V:2] d8 | 
[V:3] B,3A,/G,/A,4 | 
[V:4] D,8 | 
[V:1] G8- | 
[V:2] z2d2d2d2 | 
[V:3] G,8 | 
[V:4] z2G,,2G,,2G,,2 | 
[V:1] G8 | 
[V:2] _e2_e2d4 | 
[V:3] z2G,2G,2G,2 | 
[V:4] C,2C,2B,,4 | 
[V:1] z8 | 
[V:2] z2c2d2f2- | 
[V:3] C2C2B,4 | 
[V:4] A,,4z2D,2- | 
[V:1] z8 | 
[V:2] f2e2f2F2 | 
[V:3] A,4z2D2- | 
[V:4] D,2C,2D,2B,,2 | 
[V:1] z4z2D2 | 
[V:2] G2A2z2D2 | 
[V:3] D2C2D2B,2 | 
[V:4] G,,2C,3B,,/A,,/B,,2 | 
[V:1] G2G2F2F2 | 
[V:2] E4F4 | 
[V:3] G,2C4=B,2 | 
[V:4] C,2E,2D,4 | 
[V:1] E8 | 
[V:2] G4z2A2- | 
[V:3] C8 | 
[V:4] C,6A,,2 | 
[V:1] z4z2A2- | 
[V:2] A2G2A2F2 | 
[V:3] z8 | 
[V:4] B,,4A,,4 | 
[V:1] A2G2A2F2 | 
[V:2] D2G2FEF2 | 
[V:3] z4z2D2- | 
[V:4] z8 | 
[V:1] D2A2F2G2- | 
[V:2] G2A2D2G2- | 
[V:3] D2C2D2B,2 | 
[V:4] z8 | 
[V:1] G2FED4 | 
[V:2] G2G3FD2 | 
[V:3] G,2C4=B,2 | 
[V:4] G,,8 | 
[V:1] z4E4 | 
[V:2] z2G6 | 
[V:3] C8 | 
[V:4] C,8 | 
[V:1] E4F4 | 
[V:2] A6F2- | 
[V:3] C4C4 | 
[V:4] A,,8 | 
[V:1] G8 | 
[V:2] F2EDE4 | 
[V:3] B,4B,4 | 
[V:4] G,,8 | 
[V:1] A4z2c2 | 
[V:2] F8 | 
[V:3] A,4A,2A,2- | 
[V:4] F,,4F,,3G,, | 
[V:1] c2B4B2 | 
[V:2] z8 | 
[V:3] A,2G,F,E,2D,2 | 
[V:4] A,,2B,,2G,,4 | 
[V:1] A3GE2F2- | 
[V:2] c3BAGF2- | 
[V:3] F,4E,2D,2 | 
[V:4] F,,3G,,A,,2D,,2- | 
[V:1] FGA2D2A2- | 
[V:2] F2c2B2A2- | 
[V:3] A,4G,2F,2 | 
[V:4] D,,E,,F,,2G,,2D,,2 | 
[V:1] A2GFG4 | 
[V:2] A2d4^c2 | 
[V:3] A,4G,4 | 
[V:4] F,,4E,,4 | 
[V:1] !fermata!F8 | 
[V:2] !fermata!d8 | 
[V:3] !fermata!A,8 | 
[V:4] !fermata!D,,8 | 
[V:1] z8 | 
[V:2] d4d2d2 | 
[V:3] z2F,2G,2B,2- | 
[V:4] z8 | 
[V:1] z4F4 | 
[V:2] c4B2FG | 
[V:3] B,2A,2B,4 | 
[V:4] z4D,4 | 
[V:1] F2F2E4 | 
[V:2] AFB4A2 | 
[V:3] z8 | 
[V:4] D,2D,2C,4 | 
[V:1] D4z2G2- | 
[V:2] B2AGd4 | 
[V:3] B,4B,2B,2 | 
[V:4] B,,6A,,G,, | 
[V:1] G2F2G2B2 | 
[V:2] d4z2d2 | 
[V:3] A,4G,4 | 
[V:4] D,4z2G,,2 | 
[V:1] B2B2A2A2 | 
[V:2] d2d3cA2 | 
[V:3] z8 | 
[V:4] G,,2G,,2F,,2F,,2 | 
[V:1] G3FEDG2- | 
[V:2] B2G3FD2 | 
[V:3] z2B,2B,2B,2 | 
[V:4] G,,8 | 
[V:1] G2^F2G4 | 
[V:2] d8 | 
[V:3] A,2A,2G,3F, | 
[V:4] D,,4z2B,,2 | 
[V:1] z8 | 
[V:2] z8 | 
[V:3] E,D,G,4^F,2 | 
[V:4] B,,2B,,2A,,2A,,2 | 
[V:1] D3EFGA2- | 
[V:2] d4d2d2 | 
[V:3] G,4z4 | 
[V:4] G,,4D,,4 | 
[V:1] A2GFG2A2 | 
[V:2] c6BA | 
[V:3] z8 | 
[V:4] z8 | 
[V:1] B8 | 
[V:2] G3ABcd2- | 
[V:3] G,4G,2G,2 | 
[V:4] z8 | 
[V:1] A8 | 
[V:2] d2cBc2d2 | 
[V:3] F,6_E,D, | 
[V:4] z8 | 
[V:1] z8 | 
[V:2] _e8 | 
[V:3] C,3D,_E,F,G,2- | 
[V:4] C,4C,2C,2 | 
[V:1] z8 | 
[V:2] d8 | 
[V:3] G,2F,E,F,2G,2 | 
[V:4] B,,6A,,G,, | 
[V:1] c4c2c2 | 
[V:2] z8 | 
[V:3] A,4A,4 | 
[V:4] F,,8 | 
[V:1] B6AG | 
[V:2] d6d2 | 
[V:3] G,6F,E, | 
[V:4] G,,3A,,B,,C,D,2- | 
[V:1] F4z2F2 | 
[V:2] d2_e4d2- | 
[V:3] D,4z2A,2 | 
[V:4] D,2C,B,,C,2D,2 | 
[V:1] G2A2B2c2- | 
[V:2] d2cBd3c | 
[V:3] G,2C3B,A,G, | 
[V:4] _E,8 | 
[V:1] cBAG^F2GF | 
[V:2] d8 | 
[V:3] F,2G,2A,4 | 
[V:4] D,8 | 
[V:1] G8 |]  
[V:2] d8 |]  
[V:3] G,8 |]  
[V:4] G,,8 |]  



